src/shared/assets/leaderboard-filled.svg

<svg width="24" height="24" viewBox="0 0 24 24" fill="none" xmlns="http://www.w3.org/2000/svg">
<g clip-path="url(#clip0_4_1955)">
<path d="M8.11111 3H15.8889C16.809 3 17.559 3.75694 17.5243 4.67361C17.5174 4.85764 17.5104 5.04167 17.5 5.22222H21.1667C21.6285 5.22222 22 5.59375 22 6.05556C22 9.27083 20.8368 11.5069 19.2743 13.0243C17.7361 14.5208 15.8611 15.2743 14.4757 15.6563C13.6632 15.8819 13.1076 16.559 13.1076 17.2396C13.1076 17.9653 13.6979 18.5556 14.4236 18.5556H15.3333C15.9479 18.5556 16.4444 19.0521 16.4444 19.6667C16.4444 20.2812 15.9479 20.7778 15.3333 20.7778H8.66667C8.05208 20.7778 7.55556 20.2812 7.55556 19.6667C7.55556 19.0521 8.05208 18.5556 8.66667 18.5556H9.57292C10.2986 18.5556 10.8889 17.9653 10.8889 17.2396C10.8889 16.559 10.3368 15.8785 9.52083 15.6563C8.13542 15.2743 6.26042 14.5208 4.72569 13.0243C3.16319 11.5069 2 9.27083 2 6.05556C2 5.59375 2.37153 5.22222 2.83333 5.22222H6.5C6.48958 5.04167 6.48264 4.86111 6.47569 4.67361C6.44097 3.75694 7.19097 3 8.11111 3ZM6.625 6.88889H3.69792C3.875 9.19097 4.77778 10.75 5.88542 11.8299C6.66319 12.5868 7.5625 13.125 8.42708 13.5069C7.63889 12.1076 6.94097 10.0174 6.625 6.88889ZM15.5694 13.5069C16.434 13.125 17.3333 12.5868 18.1111 11.8299C19.2222 10.75 20.125 9.19097 20.2986 6.88889H17.3715C17.0556 10.0174 16.3576 12.1076 15.5694 13.5069ZM12.25 6.00347C12.1493 5.79861 11.8542 5.79861 11.7535 6.00347L11.0868 7.35417C11.0451 7.4375 10.9688 7.49306 10.8785 7.50694L9.38542 7.72222C9.15625 7.75694 9.06597 8.03472 9.23264 8.19445L10.309 9.24306C10.375 9.30556 10.4028 9.39931 10.3889 9.48958L10.1354 10.9722C10.0972 11.1979 10.3333 11.3715 10.5382 11.2639L11.8715 10.5694C11.9514 10.5278 12.0486 10.5278 12.1285 10.5694L13.4618 11.2708C13.6667 11.3785 13.9028 11.2049 13.8646 10.9792L13.6111 9.49306C13.5972 9.40278 13.625 9.3125 13.691 9.24653L14.7674 8.19792C14.9306 8.03819 14.8403 7.75694 14.6146 7.72569L13.125 7.51042C13.0347 7.49653 12.9549 7.44097 12.9167 7.35764L12.25 6.00347Z" fill="white"/>
</g>
<defs>
<clipPath id="clip0_4_1955">
<rect width="20" height="17.7778" fill="white" transform="translate(2 3)"/>
</clipPath>
</defs>
</svg>

<svg xmlns="http://www.w3.org/2000/svg" width="24" height="24" fill="currentColor" viewBox="0 0 24 24">
  <g clip-path="url(#a)">
    <path d="M8.111 3h7.778c.92 0 1.67.757 1.635 1.674-.007.184-.014.368-.024.548h3.667c.461 0 .833.372.833.834 0 3.215-1.163 5.45-2.726 6.968-1.538 1.497-3.413 2.25-4.798 2.632-.813.226-1.368.903-1.368 1.584 0 .725.59 1.316 1.316 1.316h.91a1.11 1.11 0 1 1 0 2.222H8.666a1.11 1.11 0 1 1 0-2.222h.906c.726 0 1.316-.59 1.316-1.316 0-.681-.552-1.361-1.368-1.584-1.386-.382-3.26-1.135-4.795-2.632C3.163 11.507 2 9.271 2 6.056c0-.462.372-.834.833-.834H6.5c-.01-.18-.017-.36-.024-.548C6.44 3.757 7.19 3 8.11 3ZM6.625 6.889H3.698c.177 2.302 1.08 3.861 2.187 4.94.778.758 1.678 1.296 2.542 1.678-.788-1.4-1.486-3.49-1.802-6.618Zm8.944 6.618c.865-.382 1.764-.92 2.542-1.677 1.111-1.08 2.014-2.639 2.188-4.941h-2.927c-.316 3.128-1.014 5.219-1.803 6.618ZM12.25 6.003a.277.277 0 0 0-.496 0l-.667 1.351a.278.278 0 0 1-.208.153l-1.494.215a.276.276 0 0 0-.152.472l1.076 1.05a.28.28 0 0 1 .08.246l-.254 1.482c-.038.226.198.4.403.292l1.333-.695a.28.28 0 0 1 .258 0l1.333.702a.277.277 0 0 0 .403-.292l-.254-1.486a.284.284 0 0 1 .08-.246l1.076-1.05a.277.277 0 0 0-.152-.471l-1.49-.216a.273.273 0 0 1-.208-.152l-.667-1.355Z"/>
  </g>
  <defs>
    <clipPath id="a">
      <path d="M2 3h20v17.778H2z"/>
    </clipPath>
  </defs>
</svg>
